X: 2
T: The Iron Man [W.M.F. McHardy, Forgue]
T: by J. Scott Skinner, from "The Scottish Violinist"
M: 4/4
L: 1/8
K: A
E|"A"A2 c>A "E"B>G"A"A>B|"A"c2 e>c "E"d>B"A"c<e|"D"f2 d>f "A"e2 c>e|"Bm"(3dcB (3cBA "E"G<BB>c| "A"A2 c>A "E"B>G"A"A>B |"A"c2 e>c "E"d>B"A"c<e|
"D"f2 d>f "A"e<ac>A|"E"(3Bcd (3dcB "A"c<A A|| g|"A"a>A"E"g>A "D"f>A"A"e>A|"A"c/B/A e>g a>ec<A|"Bm"dEcE "E"B>Ec>E|
"Bm"d/c/B c/B/A "E"(3Bcd (3efg|"F#m"a>A"E"g>A "D"f>A"A"e>A|"A"c/B/A e>g a>ec<A|"D"d2 f>d "A"(3eag "D"(3fed|"E"(3cBA (3GAB "A"c<A A |]
%%textfont Times-Italic 11.0
%%text A splendid example of an early modern strathspey, written by one of the greatest Scottish composers of all time.
%%text Note the long phrases and lyrical melodic patterns.


%%titlespace     1.00cm
